X:26
T: The Killarney Boys Of Pleasure
R: reel
M: 4/4
L: 1/8
K: Edor
|"Em"~E2FD E2FA|"G"BFAE "D"DEFA|"Em"BA(3Bcd ezed|(3Bcd "D"AF DEFD|
 "Em"E2FD E2FA|"G"BFAE "D"DEFA|"Em"BA(3Bcd ezed|1B2AF "D"FEED:|2B2AF "D"FE~E2|:
"Em"Beed Beed|ABAF DEFA|"D"~f3e fzfe|dBAF DE~F2|
"Em"Beed Beed|ABAF DEFA|"D"~f3e dzBA|1(3Bcd AF "Em"FE~E2:|2(3Bcd AF "Em"FEED|